X:1
T: Miss Hog (of Newliston's) Reel
C:R. Mackintosh
R:Reel
Q: 232
K:Gm
M:4/4
L:1/8
|:A|Bd Ac BG GA|BG cB AF FA|Bd Ac BG gd|ec Ad BG GA|
Bd Ac BG GA|BG cB AF FA|Bd Ac BG gd|ec Ad BG GA|
Bd cB fd cB|AF cF dF cF|Bd Ac BG ga|ba g^f g1/2g1/2g ga|
ba g^f g=f ed|ec dB AF cA|BG cA dB ec|dg a^f gG G:|
